X: 113104
Q: "Reel."
M: C
L: 1/8
K: D
uB |\
vA>vD (3(FED) d>D (3(FED) | EBBA BEEd |\
uf |\
abaf defd | ebba beef |
abaf defe | dBAF AD Df |\
abaf defd | ebba beef |\
abaf dgfe | dBAF AD D |]


